assets/logos/priorityPayments.svg

<svg id="Layer_1" viewBox="0 0 55 55" xmlns="http://www.w3.org/2000/svg">
  <defs></defs>
  <path d="M 7.325 16.254 L 7.325 38.447 C 7.325 38.783 7.502 39.086 7.796 39.254 L 12.638 42.037 C 13.268 42.398 14.042 41.944 14.042 41.23 L 13.991 20.365 C 13.991 20.037 14.168 19.726 14.454 19.558 L 27.013 12.253 C 27.307 12.076 27.677 12.085 27.971 12.253 L 40.488 19.667 C 40.774 19.835 40.95 20.138 40.95 20.466 L 40.95 34.614 C 40.95 34.95 40.774 35.253 40.488 35.421 L 28.005 42.667 C 27.71 42.835 27.349 42.835 27.055 42.667 L 22.187 39.834 C 21.557 39.473 20.775 39.918 20.775 40.641 L 20.775 46.206 C 20.775 46.534 20.952 46.837 21.229 47.005 L 27.046 50.485 C 27.34 50.661 27.71 50.661 28.005 50.485 L 47.213 39.271 C 47.507 39.103 47.675 38.8 47.675 38.464 L 47.675 16.263 C 47.675 15.926 47.499 15.615 47.196 15.456 L 27.971 4.502 C 27.685 4.343 27.324 4.343 27.038 4.502 L 7.804 15.447 C 7.51 15.615 7.325 15.926 7.325 16.254 Z" style="fill: rgb(255, 255, 255);"></path>
  <path d="M 33.738 23.221 L 27.954 20.002 C 27.668 19.842 27.315 19.842 27.038 20.002 L 21.254 23.221 C 20.96 23.381 20.775 23.701 20.775 24.037 L 20.775 30.804 C 20.775 31.132 20.952 31.443 21.237 31.611 L 27.021 34.99 C 27.315 35.158 27.677 35.158 27.979 34.99 L 33.763 31.611 C 34.049 31.443 34.225 31.14 34.225 30.804 L 34.225 24.037 C 34.225 23.701 34.04 23.39 33.746 23.221 L 33.738 23.221 Z" style="fill: rgb(255, 255, 255);"></path>
</svg>

<svg xmlns="http://www.w3.org/2000/svg" viewBox="0 0 55 55">
  <path fill="#fff" d="M7.33 16.25v22.2c0 .33.17.64.47.8l4.84 2.79a.94.94 0 0 0 1.4-.81L14 20.37c0-.33.18-.64.46-.81l12.56-7.3c.3-.18.67-.17.96 0l12.52 7.4c.28.18.46.48.46.8v14.15c0 .34-.18.64-.46.81L28 42.67a.96.96 0 0 1-.95 0l-4.86-2.84a.94.94 0 0 0-1.42.81v5.57c0 .32.18.63.46.8l5.82 3.48c.29.17.66.17.95 0l19.21-11.22a.9.9 0 0 0 .46-.8v-22.2a.9.9 0 0 0-.47-.81L27.97 4.5a.97.97 0 0 0-.93 0L7.8 15.45a.94.94 0 0 0-.47.8Z"/>
  <path fill="#fff" d="M33.74 23.22 27.95 20a.93.93 0 0 0-.91 0l-5.79 3.22a.94.94 0 0 0-.48.82v6.76c0 .33.18.64.47.81L27.02 35c.3.17.66.17.96 0l5.78-3.38a.93.93 0 0 0 .47-.8v-6.77a.95.95 0 0 0-.48-.82h-.01Z"/>
</svg>
